svgs/thin/input-text.svg

<svg xmlns="http://www.w3.org/2000/svg" viewBox="0 0 640 512"><!--! Font Awesome Pro 6.0.0-alpha3 by @fontawesome - https://fontawesome.com License - https://fontawesome.com/license (Commercial License) --><path d="M576 64H63.1C28.65 64 0 92.65 0 128v256c0 35.35 28.65 64 63.1 64H576C611.3 448 640 419.3 640 384V128C640 92.65 611.3 64 576 64zM624 384c0 26.47-21.53 48-47.1 48H63.1C37.53 432 16 410.5 16 384V128c0-26.47 21.53-48 47.1-48H576C602.5 80 624 101.5 624 128V384zM392.8 251C402.2 242.3 408 229.8 408 216c0-26.47-21.53-48-48-48H304c-4.406 0-8 3.578-8 8v160c0 4.406 3.594 8 8 8h72c26.47 0 48-21.53 48-48C424 275.4 411 257.8 392.8 251zM312 184h48c17.66 0 32 14.36 32 32s-14.34 32-32 32h-48V184zM376 328h-64v-64h64c17.66 0 32 14.36 32 32C408 313.7 393.7 328 376 328zM168.6 173l-64 160c-1.625 4.094 .375 8.75 4.469 10.41c4.094 1.594 8.781-.3438 10.41-4.469L136.6 296h78.75l17.19 42.97C233.8 342.1 236.8 344 240 344c1 0 1.1-.1875 2.969-.5625c4.094-1.656 6.094-6.312 4.469-10.41l-64-160C181 166.9 171 166.9 168.6 173zM143 280L176 197.5L208.1 280H143z"/></svg>

<svg xmlns="http://www.w3.org/2000/svg" viewBox="0 0 640 512"><!-- Font Awesome Pro 6.0.0-alpha2 by @fontawesome - https://fontawesome.com License - https://fontawesome.com/license (Commercial License) --><path d="M576.002 64H63.998C28.654 64 0 92.652 0 128V384C0 419.346 28.654 448 63.998 448H576.002C611.346 448 640 419.348 640 384V128C640 92.654 611.346 64 576.002 64ZM624 384C624 410.467 602.469 432 576.002 432H63.998C37.531 432 16 410.467 16 384V128C16 101.533 37.531 80 63.998 80H576.002C602.469 80 624 101.533 624 128V384ZM392.781 251.031C402.156 242.266 408 229.797 408 216C408 189.531 386.469 168 360 168H304C299.594 168 296 171.578 296 176V336C296 340.406 299.594 344 304 344H376C402.469 344 424 322.469 424 296C424 275.438 411 257.844 392.781 251.031ZM312 184H360C377.656 184 392 198.359 392 216S377.656 248 360 248H312V184ZM376 328H312V264H376C393.656 264 408 278.359 408 296C408 313.656 393.656 328 376 328ZM168.562 173.031L104.562 333.031C102.938 337.125 104.938 341.781 109.031 343.438C113.125 345.031 117.812 343.094 119.437 338.969L136.623 296H215.377L232.562 338.969C233.812 342.094 236.812 344 240 344C241 344 242 343.812 242.969 343.438C247.062 341.781 249.062 337.125 247.437 333.031L183.437 173.031C181 166.938 171 166.938 168.562 173.031ZM143.021 280L176 197.547L208.979 280H143.021Z"/></svg>
